style-guide/assets/xd-icons-zoom-out-small.svg

<?xml version="1.0" encoding="UTF-8"?>
<svg width="18px" height="18px" viewBox="0 0 18 18" version="1.1" xmlns="http://www.w3.org/2000/svg" xmlns:xlink="http://www.w3.org/1999/xlink">
    <!-- Generator: Sketch 51.3 (57544) - http://www.bohemiancoding.com/sketch -->
    <title>zoom out</title>
    <desc>Created with Sketch.</desc>
    <defs></defs>
    <g id="zoom-out" stroke="none" stroke-width="1" fill="none" fill-rule="evenodd">
        <path d="M16,11 C16.553,11 17,11.447 17,12 C17,12.553 16.553,13 16,13 L14,13 L14,15 C14,15.553 13.553,16 13,16 C12.447,16 12,15.553 12,15 L12,12 C12,11.447 12.447,11 13,11 L16,11 Z M5,2 C5.553,2 6,2.447 6,3 L6,6 C6,6.553 5.553,7 5,7 L2,7 C1.447,7 1,6.553 1,6 C1,5.447 1.447,5 2,5 L4,5 L4,3 C4,2.447 4.447,2 5,2 Z M5,11 C5.553,11 6,11.447 6,12 L6,15 C6,15.553 5.553,16 5,16 C4.447,16 4,15.553 4,15 L4,13 L2,13 C1.447,13 1,12.553 1,12 C1,11.447 1.447,11 2,11 L5,11 Z M13,7 C12.447,7 12,6.553 12,6 L12,3 C12,2.447 12.447,2 13,2 C13.553,2 14,2.447 14,3 L14,5 L16,5 C16.553,5 17,5.447 17,6 C17,6.553 16.553,7 16,7 L13,7 Z" id="Fill-7" fill="#000000"></path>
    </g>
</svg>

<svg viewBox="0 0 18 18" xmlns="http://www.w3.org/2000/svg">
  <path d="M16 11a1 1 0 1 1 0 2h-2v2a1 1 0 1 1-2 0v-3a1 1 0 0 1 1-1h3zM5 2a1 1 0 0 1 1 1v3a1 1 0 0 1-1 1H2a1 1 0 1 1 0-2h2V3a1 1 0 0 1 1-1zm0 9a1 1 0 0 1 1 1v3a1 1 0 1 1-2 0v-2H2a1 1 0 1 1 0-2h3zm8-4a1 1 0 0 1-1-1V3a1 1 0 1 1 2 0v2h2a1 1 0 1 1 0 2h-3z" fill="#000" fill-rule="evenodd"/>
</svg>
